; generated by SuperSlicer 2.5.60.0 on 2024-05-17 at 13:09:00 UTC

; 

; external perimeters extrusion width = 0.42mm
; perimeters extrusion width = 0.42mm
; infill extrusion width = 0.42mm
; solid infill extrusion width = 0.42mm
; top infill extrusion width = 0.42mm
; first layer extrusion width = 0.42mm

; object:{"name":"3dbenchy","id":"3dbenchy.stl id:0 copy 0","object_center":[125.000000,105.000000,0.000000],"boundingbox_center":[125.000000,105.000000,24.000000],"boundingbox_size":[60.000999,31.004000,48.000000]}
; Total objects to print: 1
M486 T1
; plater:{"center":[125.000000,105.000000,0.000000],"boundingbox_center":[125.000000,105.000000,24.000000],"boundingbox_size":[60.000999,31.004000,48.000000]}

M73 P0 R86
M73 Q0 S87
M201 X1000 Y1000 Z200 E5000 ; sets maximum accelerations, mm/sec^2
M203 X200 Y200 Z12 E120 ; sets maximum feedrates, mm / sec
M204 P1250 R1250 T1250 ; sets acceleration (P, T) and retract acceleration (R), mm/sec^2
M205 X8.00 Y8.00 Z0.40 E4.50 ; sets the jerk limits, mm/sec
M205 S0 T0 ; sets the minimum extruding and travel feed rate, mm/sec
M107
;TYPE:Custom
M862.3 P "MK3S" ; printer model check
M862.1 P0.4 ; nozzle diameter check
M115 U3.10.1 ; tell printer latest fw version
G90 ; use absolute coordinates
M83 ; extruder relative mode
M104 S215 ; set extruder temp
M140 S60 ; set bed temp
M190 S60 ; wait for bed temp
M109 S215 ; wait for extruder temp
G28 W ; home all without mesh bed level
G80 ; mesh bed leveling
G1 Z0.2 F720
G1 Y-3 F1000 ; go outside print area
G92 E0
M73 P0 R85
M73 Q0 S86
G1 X60 E9 ; intro line
G1 X100 E12.5 ; intro line
G92 E0
M221 S95

; Don't change E values below. Excessive value can damage the printer.
M907 E430 ; set extruder motor current

G21 ; set units to millimeters
G90 ; use absolute coordinates
M83 ; use relative distances for extrusion
T0
M900 K0.05 ; Filament gcode LA 1.5
M900 K30 ; Filament gcode LA 1.0
;LAYER_CHANGE
;Z:0.2
;HEIGHT:0.2
;BEFORE_LAYER_CHANGE
G92 E0.0
;0.2


G1 E-0.8 F2100
G1 Z0.4 F720
;AFTER_LAYER_CHANGE
;0.2
G1 Z0.6
M204 S800
G1 X97.821 Y97.1 F10800
G1 Z0.2 F720
G1 E0.8 F2100
;TYPE:Skirt
;WIDTH:0.52
G1 F1200
G1 X97.328 Y97.729 E0.03171
G1 X96.95 Y98.5 E0.03407
G1 X96.729 Y99.471 E0.03951
G1 X96.703 Y110.196 E0.42546
G1 X96.873 Y111.264 E0.0429
G1 X97.328 Y112.271 E0.04383
G1 X97.821 Y112.9 E0.03171
G1 X98.746 Y113.606 E0.04614
G1 X99.485 Y113.919 E0.03183
G1 X100.22 Y114.07 E0.0298
G1 X124.871 Y115.625 E0.97982
G1 X127.141 Y115.5 E0.0902
G1 X129.393 Y115.081 E0.09086
G1 X131.552 Y114.384 E0.08998
G1 X132.669 Y113.898 E0.04833
G1 X134.388 Y112.959 E0.07771
G1 X136.35 Y111.547 E0.09587
G1 X137.556 Y110.448 E0.06473
G1 X139.067 Y108.73 E0.09079
G1 X140.006 Y107.387 E0.06498
G1 X140.621 Y106.239 E0.05166
G1 X140.816 Y105.455 E0.03207
G1 X140.827 Y104.637 E0.03243
G1 X140.549 Y103.583 E0.04325
G1 X139.74 Y102.205 E0.06339
G1 X138.349 Y100.398 E0.09049
G1 X136.735 Y98.782 E0.09058
G1 X134.848 Y97.338 E0.09425
G1 X132.892 Y96.211 E0.08955
G1 X130.757 Y95.324 E0.09173
G1 X128.406 Y94.699 E0.09648
G1 X126.065 Y94.405 E0.0936
G1 X123.832 Y94.415 E0.08859
G1 X100.438 Y95.905 E0.9299
G1 X99.485 Y96.081 E0.03847
G1 X98.746 Y96.394 E0.03183
G1 X97.869 Y97.063 E0.04377
;WIPE_START
G1 F8640
M204 S1000
G1 X98.746 Y96.394 E-0.25474
G1 X99.485 Y96.081 E-0.18527
G1 X100.438 Y95.905 E-0.2239
G1 X100.853 Y95.879 E-0.09608
;WIPE_END
G1 E-0.04 F2100
G1 Z0.6 F720
; printing object 3dbenchy.stl id:0 copy 0
M486 S0
; acceleration to travel
M204 S1500
G1 X103.472 Y102.517 F10800
; decel to extrusion
M204 S800
G1 X103.981 Y103.807
; end travel
G1 Z0.2 F720
G1 E0.8 F2100
;TYPE:External perimeter
;WIDTH:0.42
G1 F1200
G1 E-0.80000 F2100.0
G1 F10800.0
G1 X99.784 Y105.000
G1 E0.80000 F0.0
G1 F1200.0
G1 X99.830 Y105.992 E0.03115
G1 X99.892 Y106.434 E0.01398
G1 X100.063 Y106.946 E0.01693
G1 X100.262 Y107.297 E0.01265
G1 X100.426 Y107.512 E0.00848
G1 X100.609 Y107.708 E0.00841
G1 X100.913 Y107.960 E0.01236
G1 X101.352 Y108.212 E0.01588
G1 X101.610 Y108.314 E0.00870
G1 X101.905 Y108.396 E0.00958
G1 X102.187 Y108.443 E0.00896
G1 X102.631 Y108.467 E0.01396
G1 X103.048 Y108.439 E0.01311
G1 X103.417 Y108.368 E0.01178
G1 X103.751 Y108.249 E0.01112
G1 X103.966 Y108.136 E0.00760
G1 X104.234 Y107.945 E0.01032
G1 X104.470 Y107.699 E0.01069
G1 X104.693 Y107.333 E0.01343
G1 X104.796 Y106.974 E0.01171
G1 X104.677 Y106.591 E0.01259
G1 X104.415 Y106.317 E0.01190
G1 X104.065 Y106.159 E0.01202
G1 X103.771 Y106.125 E0.00929
G1 X103.506 Y106.170 E0.00843
G1 X103.331 Y106.249 E0.00603
G1 X103.187 Y106.356 E0.00562
G1 X103.029 Y106.543 E0.00767
G1 X102.975 Y106.576 E0.00199
G1 X102.708 Y106.644 E0.00862
G1 X102.441 Y106.645 E0.00837
G1 X102.257 Y106.607 E0.00589
G1 X102.024 Y106.505 E0.00799
G1 X101.849 Y106.369 E0.00694
G1 X101.706 Y106.179 E0.00744
G1 X101.612 Y105.973 E0.00711
G1 X101.537 Y105.704 E0.00878
G1 X101.490 Y105.380 E0.01026
G1 X101.475 Y105.000 E0.01192
G1 E-0.80000 F2100.0
;WIPE_START
M204 S1000
G1 X104.245 Y104.108 F10800
;WIPE_END
;WIPE_START
G1 F8640
G1 X104.617 Y103.677 E-0.13133
G1 X104.781 Y103.46 E-0.06282
G1 X104.903 Y103.132 E-0.08087
G1 X104.884 Y102.689 E-0.10236
G1 X104.767 Y102.298 E-0.0944
G1 X104.464 Y101.933 E-0.10934
G1 X104.15 Y101.679 E-0.09342
G1 X103.826 Y101.499 E-0.08546
;WIPE_END
G1 E-0.04 F2100
G1 Z0.6 F720
; acceleration to travel
M204 S1500
G1 X106.392 Y103.15 F10800
; decel to extrusion
M204 S800
G1 X106.89 Y103.471
; end travel
G1 Z0.2 F720
G1 E0.8 F2100
G1 F1200
G1 E-0.80000 F2100.0
G1 F10800.0
G1 X106.877 Y105.000
G1 E0.80000 F0.0
G1 F1200.0
G1 X106.889 Y106.923 E0.06028
G1 X106.849 Y107.592 E0.02103
G1 X106.906 Y107.842 E0.00802
G1 X107.021 Y108.037 E0.00712
G1 X107.299 Y108.239 E0.01077
G1 X107.685 Y108.326 E0.01242
G1 X108.049 Y108.277 E0.01151
G1 X108.300 Y108.141 E0.00895
G1 X108.491 Y107.925 E0.00903
G1 X108.601 Y107.671 E0.00866
G1 X108.653 Y107.382 E0.00923
G1 X108.647 Y105.000 E0.07469
G1 E-0.80000 F2100.0
;WIPE_START
M204 S1000
G1 X106.662 Y103.799 F10800
;WIPE_END
;WIPE_START
G1 F8640
G1 X106.672 Y104.134 E-0.07725
G1 X106.689 Y106.917 E-0.64271
G1 X106.679 Y107.09 E-0.04004
;WIPE_END
G1 E-0.04 F2100
G1 Z0.6 F720
; acceleration to travel
M204 S1500
G1 X110.936 Y106.074 F10800
; decel to extrusion
M204 S800
G1 X111.763 Y105.877
; end travel
G1 Z0.2 F720
G1 E0.8 F2100
;TYPE:Internal perimeter
G1 F1200
G1 X111.194 Y105.978 E0.01811
G1 X110.747 Y106.258 E0.01654
G1 X110.463 Y106.729 E0.01726
G1 X110.408 Y107.254 E0.01655
G1 X110.498 Y107.674 E0.01347
G1 X110.721 Y108.085 E0.01465
G1 X111.018 Y108.373 E0.01297
G1 X111.342 Y108.570 E0.01189
G1 X111.717 Y108.713 E0.01260
G1 X112.105 Y108.800 E0.01247
G1 X112.411 Y108.835 E0.00965
G1 X112.883 Y108.843 E0.01480
G1 X113.339 Y108.798 E0.01435
G1 X113.865 Y108.654 E0.01711
G1 X114.362 Y108.390 E0.01765
G1 X114.789 Y108.025 E0.01760
G1 X115.274 Y107.368 E0.02562
G1 X115.461 Y108.001 E0.02070
G1 X115.660 Y108.328 E0.01200
G1 X115.955 Y108.567 E0.01189
G1 X116.254 Y108.679 E0.01003
G1 X116.591 Y108.707 E0.01060
G1 X117.057 Y108.663 E0.01466
G1 X117.862 Y108.671 E0.02526
G1 X118.433 Y108.642 E0.01794
G1 X119.056 Y108.540 E0.01979
G1 X119.597 Y108.341 E0.01805
G1 X120.156 Y107.959 E0.02123
G1 X120.310 Y108.332 E0.01267
G1 X120.559 Y108.666 E0.01305
G1 X120.876 Y108.912 E0.01258
G1 X121.182 Y109.054 E0.01058
G1 X121.492 Y109.132 E0.01005
G1 X121.812 Y109.152 E0.01003
G1 X122.132 Y109.113 E0.01012
G1 X122.467 Y109.003 E0.01106
G1 X122.851 Y108.748 E0.01445
G1 X123.153 Y108.407 E0.01428
G1 X123.634 Y108.766 E0.01880
G1 X124.184 Y108.863 E0.01751
G1 X124.680 Y108.668 E0.01671
G1 X124.970 Y108.395 E0.01249
G1 X125.137 Y108.159 E0.00907
G1 X125.321 Y108.469 E0.01129
G1 X125.630 Y108.747 E0.01302
G1 X126.038 Y108.878 E0.01346
G1 X126.444 Y108.875 E0.01273
G1 X126.848 Y108.748 E0.01326
G1 X127.236 Y108.435 E0.01564
G1 X127.438 Y108.033 E0.01410
G1 X127.489 Y107.623 E0.01296
G1 X127.428 Y107.216 E0.01292
G1 X127.246 Y106.811 E0.01390
G1 X126.580 Y105.702 E0.04057
G1 X126.980 Y105.000 E0.02532
G1 E-0.80000 F2100.0
G1 F10800.0
G1 X127.196 Y105.000
G1 E0.80000 F0.0
G1 F1200.0
G1 X127.987 Y107.098 E0.07031
G1 X128.256 Y107.712 E0.02099
G1 X128.061 Y108.118 E0.01413
G1 X127.852 Y108.664 E0.01834
G1 X127.789 Y108.769 E0.00382
G1 X127.669 Y108.853 E0.00460
G1 X127.147 Y109.003 E0.01701
G1 X126.812 Y109.220 E0.01252
G1 X126.572 Y109.571 E0.01333
G1 X126.494 Y109.956 E0.01231
G1 X126.510 Y110.232 E0.00868
G1 X126.575 Y110.499 E0.00862
G1 X126.743 Y110.852 E0.01226
G1 X127.066 Y111.187 E0.01458
G1 X127.370 Y111.339 E0.01066
G1 X127.725 Y111.411 E0.01136
G1 X128.092 Y111.394 E0.01151
G1 X128.467 Y111.309 E0.01207
G1 X128.752 Y111.211 E0.00945
G1 X129.112 Y111.033 E0.01257
G1 X129.493 Y110.726 E0.01537
G1 X129.732 Y110.420 E0.01216
G1 X129.883 Y110.165 E0.00930
G1 X130.173 Y109.525 E0.02202
G1 X130.563 Y108.521 E0.03377
G1 X131.520 Y105.847 E0.08906
G1 X131.796 Y105.000 E0.02793
G1 E-0.80000 F2100.0
G1 F10800.0
G1 X132.076 Y105.000
G1 E0.80000 F0.0
G1 F1200.0
G1 X132.169 Y105.067 E0.00360
G1 X132.433 Y105.164 E0.00884
G1 X132.723 Y105.216 E0.00922
G1 X132.092 Y106.016 E0.03192
G1 X131.818 Y106.393 E0.01463
G1 X131.610 Y106.734 E0.01252
G1 X131.470 Y107.076 E0.01157
G1 X131.406 Y107.447 E0.01181
G1 X131.434 Y107.847 E0.01259
G1 X131.609 Y108.324 E0.01591
G1 X131.980 Y108.711 E0.01680
G1 X132.353 Y108.857 E0.01256
G1 X132.631 Y108.892 E0.00878
G1 X133.247 Y108.861 E0.01933
G1 X133.985 Y108.856 E0.02316
G1 X134.056 Y109.060 E0.00676
G1 X133.422 Y109.559 E0.02532
G1 X132.935 Y109.903 E0.01871
G1 X132.248 Y110.337 E0.02545
G1 X131.712 Y110.640 E0.01930
G1 X131.015 Y110.989 E0.02445
G1 X130.160 Y111.355 E0.02916
G1 X129.334 Y111.646 E0.02745
G1 X128.377 Y111.914 E0.03117
G1 X127.459 Y112.105 E0.02938
G1 X126.628 Y112.223 E0.02634
G1 X125.757 Y112.294 E0.02738
G1 X124.832 Y112.310 E0.02902
G1 X124.187 Y112.285 E0.02021
G1 X100.857 Y110.867 E0.73286
G1 X100.579 Y110.819 E0.00884
G1 X100.359 Y110.723 E0.00752
G1 X100.180 Y110.578 E0.00723
G1 X100.051 Y110.404 E0.00681
G1 X99.958 Y110.172 E0.00782
G1 X99.915 Y109.840 E0.01051
G1 X99.903 Y107.506 E0.07317
G1 X100.350 Y107.983 E0.02050
G1 X100.697 Y108.271 E0.01412
G1 X101.188 Y108.553 E0.01776
G1 X101.490 Y108.672 E0.01019
G1 X101.823 Y108.764 E0.01082
G1 X102.145 Y108.819 E0.01025
G1 X102.633 Y108.844 E0.01533
G1 X103.097 Y108.814 E0.01456
G1 X103.517 Y108.732 E0.01342
G1 X103.903 Y108.595 E0.01284
G1 X104.164 Y108.458 E0.00925
G1 X104.481 Y108.231 E0.01223
G1 X104.770 Y107.931 E0.01307
G1 X105.042 Y107.486 E0.01632
G1 X105.190 Y106.970 E0.01684
G1 X105.011 Y106.394 E0.01891
G1 X104.636 Y106.003 E0.01698
G1 X104.167 Y105.791 E0.01615
G1 X103.761 Y105.744 E0.01280
G1 X103.395 Y105.806 E0.01164
G1 X103.138 Y105.922 E0.00885
G1 X102.927 Y106.079 E0.00824
G1 X102.798 Y106.232 E0.00628
G1 X102.660 Y106.267 E0.00444
G1 X102.479 Y106.268 E0.00568
G1 X102.372 Y106.246 E0.00343
G1 X102.218 Y106.178 E0.00527
G1 X102.120 Y106.102 E0.00390
G1 X102.032 Y105.985 E0.00460
G1 X101.967 Y105.843 E0.00489
G1 X101.906 Y105.626 E0.00707
G1 X101.866 Y105.345 E0.00889
G1 X101.852 Y105.000 E0.01084
G1 E-0.80000 F2100.0
G1 F10800.0
G1 X106.500 Y105.000
G1 E0.80000 F0.0
G1 F1200.0
G1 X106.512 Y106.912 E0.05996
G1 X106.469 Y107.624 E0.02235
G1 X106.552 Y107.983 E0.01155
G1 X106.736 Y108.296 E0.01139
G1 X107.140 Y108.590 E0.01567
G1 X107.669 Y108.709 E0.01699
G1 X108.169 Y108.642 E0.01581
G1 X108.539 Y108.440 E0.01321
G1 X108.813 Y108.130 E0.01298
G1 X108.964 Y107.781 E0.01192
G1 X109.030 Y107.415 E0.01167
G1 X109.024 Y105.000 E0.07571
G1 E-0.80000 F2100.0
G1 F10800.0
G1 X111.118 Y105.000
G1 E0.80000 F0.0
G1 F1200.0
G1 X111.252 Y105.388 E0.01285
G1 X111.720 Y105.835 E0.02031
;WIPE_START
G1 F8640
M204 S1000
G1 X111.252 Y105.388 E-0.14956
G1 X111.104 Y104.96 E-0.10443
G1 X111.11 Y104.563 E-0.09189
G1 X111.209 Y104.213 E-0.08382
G1 X111.354 Y103.925 E-0.07457
G1 X111.155 Y103.868 E-0.04755
G1 X110.83 Y103.588 E-0.09915
G1 X110.635 Y103.333 E-0.07406
G1 X110.518 Y103.429 E-0.03495
;WIPE_END
G1 E-0.04 F2100
; acceleration to travel
M204 S1500
G1 X112.622 Y106.147 F10800
; decel to extrusion
M204 S800
G1 X113.031 Y106.675
; end travel
G1 E0.8 F2100
;TYPE:External perimeter
G1 F1200
G1 X112.825 Y106.755 E0.00691
G1 X112.691 Y106.713 E0.00442
G1 X112.250 Y106.396 E0.01702
G1 X112.000 Y106.305 E0.00833
G1 X111.701 Y106.271 E0.00945
G1 X111.332 Y106.336 E0.01173
G1 X111.024 Y106.530 E0.01142
G1 X110.829 Y106.852 E0.01181
G1 X110.789 Y107.234 E0.01204
G1 X110.855 Y107.542 E0.00988
G1 X111.025 Y107.854 E0.01115
G1 X111.250 Y108.073 E0.00984
G1 X111.508 Y108.230 E0.00946
G1 X111.826 Y108.351 E0.01067
G1 X112.169 Y108.428 E0.01101
G1 X112.436 Y108.459 E0.00843
G1 X112.868 Y108.465 E0.01354
G1 X113.270 Y108.426 E0.01268
G1 X113.725 Y108.302 E0.01480
G1 X114.149 Y108.077 E0.01503
G1 X114.511 Y107.767 E0.01494
G1 X114.800 Y107.375 E0.01529
G1 X114.969 Y107.025 E0.01217
G1 X115.097 Y106.565 E0.01498
G1 X115.118 Y106.115 E0.01411
G1 X115.059 Y105.757 E0.01137
G1 X114.887 Y105.305 E0.01517
G1 X114.715 Y105.000 E0.01099
G1 E-0.80000 F2100.0
G1 F10800.0
G1 X111.517 Y105.000
G1 E0.80000 F0.0
G1 F1200.0
G1 X111.578 Y105.178 E0.00591
G1 X111.821 Y105.410 E0.01053
G1 X112.076 Y105.509 E0.00858
G1 X112.683 Y105.636 E0.01943
G1 X112.838 Y105.715 E0.00547
G1 X112.974 Y105.823 E0.00543
G1 X113.084 Y105.949 E0.00526
G1 X113.181 Y106.130 E0.00643
G1 X113.213 Y106.280 E0.00480
G1 X113.198 Y106.433 E0.00483
G1 X113.104 Y106.611 E0.00631
G1 X113.076 Y106.635 E0.00117
;WIPE_START
M204 S1000
G1 X112.691 Y106.463 F10800
;WIPE_END
;WIPE_START
G1 F8640
G1 X112.344 Y106.218 E-0.0982
G1 X112.047 Y106.109 E-0.07315
G1 X111.695 Y106.069 E-0.08181
G1 X111.259 Y106.146 E-0.10211
G1 X110.877 Y106.385 E-0.10407
G1 X110.635 Y106.787 E-0.10827
G1 X110.587 Y107.245 E-0.10627
G1 X110.665 Y107.609 E-0.08612
;WIPE_END
G1 E-0.04 F2100
G1 Z0.6 F720
; acceleration to travel
M204 S1500
G1 X114.395 Y105.383 F10800
; decel to extrusion
M204 S800
G1 X115.12 Y104.95
; end travel
G1 Z0.2 F720
G1 E0.8 F2100
;TYPE:Internal perimeter
G1 F1200
G1 E-0.80000 F2100.0
;WIPE_START
G1 F8640
M204 S1000
G1 X115.345 Y104.891 E-0.03982
G1 X115.346 Y103.948 E-0.21778
G1 X115.124 Y103.887 E-0.05313
G1 X114.869 Y104.316 E-0.11519
G1 X114.673 Y104.493 E-0.06112
G1 X114.983 Y104.708 E-0.08709
G1 X115.12 Y104.95 E-0.06416
;WIPE_END
G1 E-0.16171 F2100
G1 Z0.6 F720
; acceleration to travel
M204 S1500
G1 X115.672 Y102.518 F10800
; decel to extrusion
M204 S800
G1 X115.779 Y102.046
; end travel
G1 Z0.2 F720
G1 E0.8 F2100
;TYPE:External perimeter
G1 F1200
G1 E-0.80000 F2100.0
G1 F10800.0
G1 X115.722 Y105.000
G1 E0.80000 F0.0
G1 F1200.0
G1 X115.720 Y106.662 E0.05211
G1 X115.702 Y107.273 E0.01917
G1 X115.729 Y107.577 E0.00956
G1 X115.809 Y107.847 E0.00882
G1 X115.948 Y108.076 E0.00841
G1 X116.145 Y108.235 E0.00793
G1 X116.338 Y108.308 E0.00646
G1 X116.589 Y108.329 E0.00790
G1 X117.041 Y108.286 E0.01423
G1 X117.854 Y108.294 E0.02550
G1 X118.393 Y108.266 E0.01692
G1 X118.960 Y108.173 E0.01801
G1 X119.423 Y108.003 E0.01546
G1 X119.744 Y107.783 E0.01220
G1 X119.936 Y107.583 E0.00872
G1 X120.441 Y106.758 E0.03031
G1 X120.556 Y106.511 E0.00856
G1 X120.634 Y106.261 E0.00819
G1 X120.764 Y106.025 E0.00848
G1 X120.892 Y105.705 E0.01079
G1 X120.988 Y105.370 E0.01093
G1 X121.023 Y105.000 E0.01164
G1 E-0.80000 F2100.0
;WIPE_START
M204 S1000
G1 X115.38 Y102.077 F10800
;WIPE_END
;WIPE_START
G1 F8640
G1 X115.478 Y102.384 E-0.07438
G1 X115.524 Y103.064 E-0.15735
G1 X115.521 Y105.351 E-0.52827
;WIPE_END
G1 E-0.04 F2100
G1 Z0.6 F720
; acceleration to travel
M204 S1500
G1 X119.725 Y107.491 F10800
; decel to extrusion
M204 S800
G1 X120.542 Y107.907
; end travel
G1 Z0.2 F720
G1 E0.8 F2100
G1 F1200
G1 X120.640 Y108.145 E0.00806
G1 X120.830 Y108.399 E0.00996
G1 X121.073 Y108.588 E0.00965
G1 X121.308 Y108.697 E0.00811
G1 X121.551 Y108.758 E0.00784
G1 X121.801 Y108.773 E0.00786
G1 X122.050 Y108.743 E0.00787
G1 X122.301 Y108.660 E0.00830
G1 X122.602 Y108.461 E0.01131
G1 X122.775 Y108.265 E0.00821
G1 X122.897 Y108.037 E0.00811
G1 X122.967 Y107.719 E0.01021
G1 X123.018 Y107.335 E0.01214
