; generated by SuperSlicer 2.5.60.0 on 2024-05-17 at 10:56:21 UTC

; 

; external perimeters extrusion width = 0.42mm
; perimeters extrusion width = 0.42mm
; infill extrusion width = 0.42mm
; solid infill extrusion width = 0.42mm
; top infill extrusion width = 0.42mm
; first layer extrusion width = 0.42mm

; object:{"name":"Voron_Design_Cube_v8","id":"Voron_Design_Cube_v8.STL id:0 copy 0","object_center":[125.000000,105.000000,0.000000],"boundingbox_center":[125.000000,105.000000,15.000000],"boundingbox_size":[30.000000,30.000000,30.000000]}
; Total objects to print: 1
M486 T1
; plater:{"center":[125.000000,105.000000,0.000000],"boundingbox_center":[125.000000,105.000000,15.000000],"boundingbox_size":[30.000000,30.000000,30.000000]}

M73 P0 R73
M73 Q0 S73
M201 X1000 Y1000 Z200 E5000 ; sets maximum accelerations, mm/sec^2
M203 X200 Y200 Z12 E120 ; sets maximum feedrates, mm / sec
M204 P1250 R1250 T1250 ; sets acceleration (P, T) and retract acceleration (R), mm/sec^2
M205 X8.00 Y8.00 Z0.40 E4.50 ; sets the jerk limits, mm/sec
M205 S0 T0 ; sets the minimum extruding and travel feed rate, mm/sec
M107
;TYPE:Custom
M862.3 P "MK3S" ; printer model check
M862.1 P0.4 ; nozzle diameter check
M115 U3.10.1 ; tell printer latest fw version
G90 ; use absolute coordinates
M83 ; extruder relative mode
M104 S215 ; set extruder temp
M140 S60 ; set bed temp
M190 S60 ; wait for bed temp
M109 S215 ; wait for extruder temp
G28 W ; home all without mesh bed level
G80 ; mesh bed leveling
G1 Z0.2 F720
G1 Y-3 F1000 ; go outside print area
G92 E0
M73 P0 R72
G1 X60 E9 ; intro line
G1 X100 E12.5 ; intro line
G92 E0
M221 S95

; Don't change E values below. Excessive value can damage the printer.
M907 E430 ; set extruder motor current

G21 ; set units to millimeters
G90 ; use absolute coordinates
M83 ; use relative distances for extrusion
T0
M900 K0.05 ; Filament gcode LA 1.5
M900 K30 ; Filament gcode LA 1.0
;LAYER_CHANGE
;Z:0.2
;HEIGHT:0.2
;BEFORE_LAYER_CHANGE
G92 E0.0
;0.2


G1 E-0.8 F2100
G1 Z0.4 F720
;AFTER_LAYER_CHANGE
;0.2
G1 Z0.6
M204 S800
G1 X108.417 Y93.917 F10800
G1 Z0.2 F720
G1 E0.8 F2100
;TYPE:Skirt
;WIDTH:0.52
G1 F1200
G1 X107.761 Y95.5 E0.06797
G1 X107.761 Y114.5 E0.75372
G1 X108.417 Y116.083 E0.06797
G1 X113.917 Y121.583 E0.30856
G1 X115.5 Y122.239 E0.06797
G1 X134.5 Y122.239 E0.75372
G1 X136.083 Y121.583 E0.06797
G1 X141.583 Y116.083 E0.30856
G1 X142.239 Y114.5 E0.06797
G1 X142.239 Y95.5 E0.75372
G1 X141.583 Y93.917 E0.06797
G1 X136.083 Y88.417 E0.30856
G1 X134.5 Y87.761 E0.06797
G1 X115.5 Y87.761 E0.75372
G1 X113.917 Y88.417 E0.06797
G1 X108.46 Y93.875 E0.30617
;WIPE_START
G1 F8640
M204 S1000
G1 X110.787 Y91.547 E-0.76
;WIPE_END
G1 E-0.04 F2100
G1 Z0.6 F720
; printing object Voron_Design_Cube_v8.STL id:0 copy 0
M486 S0
; acceleration to travel
M204 S1500
G1 X117.598 Y97.791 F10800
; decel to extrusion
M204 S800
G1 X118.922 Y99.005
; end travel
G1 Z0.2 F720
G1 E0.8 F2100
;TYPE:Internal perimeter
;WIDTH:0.42
G1 F1200
G1 X118.909 Y99.017 E0.00055
G1 X118.319 Y99.684 E0.02791
G1 X117.839 Y100.350 E0.02574
G1 X117.427 Y101.058 E0.02569
G1 X117.083 Y101.803 E0.02574
G1 X116.793 Y102.645 E0.02791
G1 X116.605 Y103.444 E0.02574
G1 X116.495 Y104.256 E0.02569
G1 X116.462 Y105.075 E0.02569
G1 X116.509 Y105.894 E0.02574
G1 X116.648 Y106.773 E0.02791
G1 X116.857 Y107.567 E0.02574
G1 X117.141 Y108.336 E0.02569
G1 X117.497 Y109.076 E0.02574
G1 X117.963 Y109.835 E0.02791
G1 X118.460 Y110.488 E0.02574
G1 X119.017 Y111.091 E0.02574
G1 X119.684 Y111.681 E0.02791
G1 X120.350 Y112.161 E0.02574
G1 X121.058 Y112.573 E0.02569
G1 X121.803 Y112.917 E0.02574
G1 X122.645 Y113.207 E0.02791
G1 X123.444 Y113.395 E0.02574
G1 X124.256 Y113.505 E0.02569
G1 X125.075 Y113.538 E0.02569
G1 X125.894 Y113.491 E0.02574
G1 X126.774 Y113.352 E0.02791
G1 X127.567 Y113.143 E0.02574
G1 X128.338 Y112.859 E0.02574
G1 X129.138 Y112.468 E0.02791
G1 X129.836 Y112.036 E0.02574
G1 X130.488 Y111.540 E0.02569
G1 X131.091 Y110.983 E0.02574
G1 X131.681 Y110.316 E0.02792
G1 X132.161 Y109.650 E0.02574
G1 X132.573 Y108.942 E0.02569
G1 X132.917 Y108.197 E0.02574
G1 X133.207 Y107.355 E0.02791
G1 X133.395 Y106.556 E0.02574
G1 X133.505 Y105.744 E0.02569
G1 X133.538 Y104.925 E0.02569
G1 X133.491 Y104.106 E0.02574
G1 X133.352 Y103.226 E0.02791
G1 X133.143 Y102.433 E0.02574
G1 X132.859 Y101.662 E0.02574
G1 X132.468 Y100.862 E0.02792
G1 X132.036 Y100.164 E0.02574
G1 X131.540 Y99.512 E0.02569
G1 X130.983 Y98.909 E0.02574
G1 X130.316 Y98.319 E0.02791
G1 X129.650 Y97.839 E0.02574
G1 X128.942 Y97.427 E0.02569
G1 X128.197 Y97.083 E0.02574
G1 X127.355 Y96.793 E0.02791
G1 X126.556 Y96.605 E0.02574
G1 X125.744 Y96.495 E0.02569
G1 X124.925 Y96.462 E0.02569
G1 X124.516 Y96.486 E0.01285
G1 X124.106 Y96.509 E0.01290
G1 X123.227 Y96.648 E0.02791
G1 X122.433 Y96.857 E0.02574
G1 X121.662 Y97.141 E0.02574
G1 X120.862 Y97.532 E0.02792
G1 X120.164 Y97.964 E0.02574
G1 X119.512 Y98.460 E0.02569
G1 X118.966 Y98.964 E0.02331
G1 X119.179 Y99.281 F10800
;TYPE:External perimeter
G1 F1200
G1 X119.225 Y99.891 E0.01918
G1 X118.614 Y99.919 E0.01918
G1 X118.723 Y100.481 E0.01794
G1 X118.156 Y100.555 E0.01794
G1 X118.233 Y101.053 E0.01578
G1 X117.762 Y101.232 E0.01578
G1 X117.864 Y101.711 E0.01536
G1 X117.433 Y101.944 E0.01536
G1 X117.300 Y102.349 E0.01337
G1 X117.156 Y102.750 E0.01337
G1 X117.125 Y103.145 E0.01244
G1 X116.976 Y103.513 E0.01244
G1 X117.104 Y103.925 E0.01354
G1 X116.871 Y104.289 E0.01354
G1 X117.203 Y104.658 E0.01558
G1 X116.843 Y105.000 E0.01558
G1 X116.840 Y105.071 E0.00223
G1 X116.884 Y105.854 E0.02458
G1 X117.018 Y106.696 E0.02672
G1 X117.217 Y107.454 E0.02458
G1 X117.488 Y108.189 E0.02455
G1 X117.829 Y108.895 E0.02458
G1 X118.274 Y109.621 E0.02673
G1 X118.749 Y110.245 E0.02458
G1 X119.281 Y110.821 E0.02458
G1 X119.919 Y111.386 E0.02673
G1 X120.555 Y111.844 E0.02458
G1 X121.232 Y112.238 E0.02455
G1 X121.944 Y112.567 E0.02458
G1 X122.750 Y112.844 E0.02673
G1 X123.513 Y113.024 E0.02458
G1 X124.289 Y113.129 E0.02455
G1 X125.071 Y113.160 E0.02456
G1 X125.854 Y113.116 E0.02458
G1 X126.696 Y112.982 E0.02672
G1 X127.454 Y112.783 E0.02458
G1 X128.189 Y112.511 E0.02458
G1 X128.956 Y112.138 E0.02673
G1 X129.622 Y111.725 E0.02458
G1 X130.245 Y111.251 E0.02455
G1 X130.821 Y110.719 E0.02458
G1 X131.386 Y110.081 E0.02673
G1 X131.844 Y109.445 E0.02458
G1 X132.238 Y108.768 E0.02455
G1 X132.567 Y108.056 E0.02458
G1 X132.844 Y107.250 E0.02673
G1 X133.024 Y106.487 E0.02458
G1 X133.129 Y105.711 E0.02455
G1 X133.157 Y105.000 E0.02233
G1 X132.672 Y104.945 E0.01534
G1 X133.160 Y104.929 E0.01534
G1 X132.573 Y104.569 E0.02158
G1 X133.116 Y104.146 E0.02158
G1 X132.651 Y103.788 E0.01838
G1 X132.982 Y103.304 E0.01838
G1 X132.804 Y102.945 E0.01255
G1 X132.783 Y102.546 E0.01255
G1 X132.352 Y102.288 E0.01576
G1 X132.511 Y101.811 E0.01576
G1 X131.787 Y101.689 E0.02301
G1 X132.138 Y101.044 E0.02301
G1 X131.876 Y100.746 E0.01246
G1 X131.725 Y100.378 E0.01246
G1 X131.276 Y100.227 E0.01484
G1 X131.251 Y99.755 E0.01484
G1 X130.746 Y99.688 E0.01597
G1 X130.719 Y99.179 E0.01597
G1 X130.046 Y99.297 E0.02144
G1 X130.081 Y98.614 E0.02144
G1 X129.482 Y98.776 E0.01948
G1 X129.445 Y98.156 E0.01948
G1 X128.823 Y98.446 E0.02150
G1 X128.768 Y97.762 E0.02150
G1 X128.173 Y98.114 E0.02167
G1 X128.056 Y97.433 E0.02167
G1 X127.637 Y97.341 E0.01346
G1 X127.250 Y97.156 E0.01346
G1 X126.748 Y97.579 E0.02059
G1 X126.487 Y96.976 E0.02059
G1 X126.080 Y97.065 E0.01306
G1 X125.711 Y96.871 E0.01306
G1 X125.307 Y97.195 E0.01627
G1 X124.929 Y96.840 E0.01627
G1 X124.739 Y96.944 E0.00680
G1 X124.538 Y96.862 E0.00680
G1 X124.374 Y97.437 E0.01876
G1 X124.146 Y96.884 E0.01876
G1 X123.777 Y97.281 E0.01697
G1 X123.304 Y97.018 E0.01697
G1 X122.944 Y97.190 E0.01251
G1 X122.546 Y97.217 E0.01251
G1 X122.180 Y97.358 E0.01229
G1 X121.811 Y97.489 E0.01229
G1 X121.568 Y97.964 E0.01672
G1 X121.044 Y97.862 E0.01672
G1 X120.881 Y98.343 E0.01593
G1 X120.378 Y98.275 E0.01593
G1 X120.271 Y98.781 E0.01621
G1 X119.755 Y98.749 E0.01621
G1 X119.522 Y99.030 E0.01145
G1 X119.223 Y99.240 E0.01145
;WIPE_START
M204 S1000
G1 X118.79 Y99.188 F10800
;WIPE_END
;WIPE_START
G1 F8640
G1 X118.458 Y99.794 E-0.15959
G1 X117.988 Y100.446 E-0.18556
G1 X117.584 Y101.14 E-0.18526
G1 X117.248 Y101.869 E-0.18554
G1 X117.185 Y102.05 E-0.04405
;WIPE_END
G1 E-0.04 F2100
G1 Z0.6 F720
; acceleration to travel
M204 S1500
G1 X111.828 Y97.174 F10800
; decel to extrusion
M204 S800
G1 X110.787 Y96.226
; end travel
G1 Z0.2 F720
G1 E0.8 F2100
;TYPE:Internal perimeter
G1 F1200
G1 X116.226 Y90.787 E0.24117
G1 X133.774 Y90.787 E0.55020
G1 X133.891 Y90.904 E0.00517
G1 X139.213 Y96.226 E0.23600
G1 X139.213 Y113.774 E0.55020
G1 X133.774 Y119.213 E0.24117
G1 X116.226 Y119.213 E0.55020
G1 X110.787 Y113.774 E0.24117
G1 X110.787 Y96.286 E0.54832
G1 X110.41 Y96.07 F10800
;TYPE:External perimeter
M73 P1 R72
M73 Q1 S73
G1 F1200
G1 X110.798 Y95.326 E0.02631
G1 X111.136 Y94.532 E0.02705
G1 X111.822 Y94.086 E0.02565
G1 X112.626 Y93.758 E0.02723
G1 X113.119 Y93.119 E0.02530
G1 X113.539 Y92.407 E0.02592
G1 X113.954 Y91.690 E0.02598
G1 X114.633 Y91.237 E0.02559
G1 X115.182 Y90.654 E0.02511
G1 X116.070 Y90.410 E0.02887
G1 X116.882 Y90.209 E0.02622
G1 X117.694 Y90.144 E0.02554
G1 X118.505 Y90.157 E0.02546
G1 X119.317 Y89.886 E0.02683
G1 X120.129 Y90.317 E0.02881
G1 X120.941 Y90.014 E0.02717
G1 X121.753 Y90.206 E0.02615
G1 X122.565 Y90.174 E0.02547
G1 X123.376 Y90.305 E0.02578
G1 X124.188 Y89.951 E0.02777
G1 X125.000 Y89.995 E0.02549
G1 X125.812 Y90.404 E0.02850
G1 X126.624 Y90.303 E0.02565
G1 X127.435 Y89.851 E0.02913
G1 X128.247 Y90.101 E0.02663
G1 X129.059 Y90.053 E0.02550
G1 X129.871 Y90.307 E0.02667
G1 X130.683 Y90.018 E0.02703
G1 X131.495 Y90.351 E0.02752
G1 X132.306 Y90.166 E0.02611
G1 X133.118 Y90.201 E0.02548
G1 X133.930 Y90.410 E0.02629
G1 X134.150 Y90.417 E0.00689
G1 X134.157 Y90.637 E0.00689
G1 X134.752 Y91.129 E0.02420
G1 X135.251 Y91.716 E0.02417
G1 X136.023 Y92.031 E0.02614
G1 X136.348 Y92.792 E0.02597
G1 X136.964 Y93.263 E0.02431
G1 X137.426 Y93.888 E0.02436
G1 X138.359 Y94.041 E0.02967
G1 X138.891 Y94.596 E0.02410
G1 X139.219 Y95.354 E0.02590
G1 X139.590 Y96.070 E0.02528
G1 X140.170 Y96.882 E0.03128
G1 X139.702 Y97.694 E0.02938
G1 X139.718 Y98.505 E0.02546
G1 X139.986 Y99.317 E0.02680
G1 X139.593 Y100.129 E0.02828
G1 X140.168 Y100.941 E0.03121
G1 X139.915 Y101.753 E0.02667
G1 X139.638 Y102.565 E0.02690
G1 X140.022 Y103.376 E0.02817
G1 X139.911 Y104.188 E0.02569
G1 X139.590 Y105.000 E0.02738
G1 X139.590 Y113.930 E0.28000
G1 X133.930 Y119.590 E0.25097
G1 X116.070 Y119.590 E0.56000
G1 X110.410 Y113.930 E0.25097
G1 X110.410 Y105.000 E0.28000
G1 X110.393 Y104.194 E0.02529
G1 X109.867 Y103.387 E0.03019
G1 X110.317 Y102.581 E0.02895
G1 X110.361 Y101.775 E0.02532
G1 X110.133 Y100.968 E0.02627
G1 X110.352 Y100.162 E0.02620
G1 X109.861 Y99.355 E0.02960
G1 X109.817 Y98.549 E0.02532
G1 X110.070 Y97.743 E0.02650
G1 X110.025 Y96.936 E0.02532
G1 X110.410 Y96.130 E0.02801
;WIPE_START
M204 S1000
G1 X110.81 Y96.07 F10800
;WIPE_END
;WIPE_START
G1 F8640
G1 X113.112 Y93.717 E-0.76
;WIPE_END
G1 E-0.04 F2100
G1 Z0.6 F720
; acceleration to travel
M204 S1500
G1 X130.171 Y91.359 F10800
; decel to extrusion
M204 S800
G1 X133.487 Y90.9
; end travel
G1 Z0.2 F720
G1 E0.8 F2100
;TYPE:Solid infill
;WIDTH:0.40848
G1 F1200
G1 X138.938 Y96.351 E0.23506
G1 X138.938 Y96.884 E0.01626
G1 X133.116 Y91.062 E0.25106
G1 X132.583 Y91.062 E0.01626
G1 X138.938 Y97.417 E0.27406
G1 X138.938 Y97.951 E0.01626
G1 X132.049 Y91.062 E0.29706
G1 X131.516 Y91.062 E0.01626
G1 X138.938 Y98.484 E0.32006
G1 X138.938 Y99.017 E0.01626
G1 X130.983 Y91.062 E0.34305
G1 X130.450 Y91.062 E0.01626
G1 X138.938 Y99.550 E0.36605
G1 X138.938 Y100.084 E0.01626
G1 X129.916 Y91.062 E0.38905
G1 X129.383 Y91.062 E0.01626
G1 X138.938 Y100.617 E0.41205
G1 X138.938 Y101.150 E0.01626
G1 X128.850 Y91.062 E0.43504
G1 X128.317 Y91.062 E0.01626
G1 X138.938 Y101.683 E0.45804
G1 X138.938 Y102.217 E0.01626
M73 Q1 S72
G1 X127.783 Y91.062 E0.48104
G1 X127.250 Y91.062 E0.01626
G1 X138.938 Y102.750 E0.50404
G1 X138.938 Y103.283 E0.01626
G1 X126.717 Y91.062 E0.52703
G1 X126.183 Y91.062 E0.01626
G1 X138.938 Y103.817 E0.55003
G1 X138.938 Y104.350 E0.01626
G1 X125.650 Y91.062 E0.57303
G1 X125.117 Y91.062 E0.01626
G1 X138.938 Y104.883 E0.59603
G1 X138.938 Y105.416 E0.01626
G1 X124.584 Y91.062 E0.61902
G1 X124.050 Y91.062 E0.01626
G1 X138.938 Y105.950 E0.64202
G1 X138.938 Y106.483 E0.01626
G1 X123.517 Y91.062 E0.66502
G1 X122.984 Y91.062 E0.01626
G1 X129.152 Y97.230 E0.26599
G1 X128.299 Y96.827 E0.02874
G1 X128.171 Y96.783 E0.00413
G1 X122.451 Y91.062 E0.24671
G1 X121.917 Y91.062 E0.01626
G1 X127.369 Y96.514 E0.23509
G1 X126.671 Y96.349 E0.02185
G1 X121.384 Y91.062 E0.22800
G1 X120.851 Y91.062 E0.01626
G1 X126.046 Y96.258 E0.22406
G1 X125.768 Y96.220 E0.00856
G1 X125.463 Y96.208 E0.00931
G1 X120.317 Y91.062 E0.22191
G1 X119.784 Y91.062 E0.01626
G1 X124.909 Y96.188 E0.22103
G1 X124.405 Y96.216 E0.01541
G1 X119.251 Y91.062 E0.22226
G1 X118.718 Y91.062 E0.01626
G1 X123.916 Y96.260 E0.22417
G1 X123.455 Y96.333 E0.01421
G1 X118.184 Y91.062 E0.22731
G1 X117.651 Y91.062 E0.01626
G1 X123.009 Y96.421 E0.23108
G1 X122.587 Y96.532 E0.01331
G1 X117.118 Y91.062 E0.23587
G1 X116.585 Y91.062 E0.01626
G1 X122.179 Y96.657 E0.24128
G1 X121.790 Y96.801 E0.01266
G1 X116.196 Y91.207 E0.24125
M73 P1 R71
G1 X115.929 Y91.473 E0.01150
G1 X121.413 Y96.957 E0.23648
G1 X121.054 Y97.132 E0.01216
G1 X115.662 Y91.740 E0.23252
G1 X115.396 Y92.007 E0.01150
G1 X120.698 Y97.309 E0.22868
G1 X120.369 Y97.513 E0.01181
G1 X115.129 Y92.273 E0.22597
G1 X114.862 Y92.540 E0.01150
G1 X120.040 Y97.717 E0.22326
G1 X119.734 Y97.945 E0.01162
G1 X114.596 Y92.806 E0.22159
G1 X114.329 Y93.073 E0.01150
G1 X119.431 Y98.175 E0.22002
G1 X119.146 Y98.423 E0.01153
G1 X114.063 Y93.340 E0.21922
G1 X113.796 Y93.606 E0.01150
G1 X118.869 Y98.679 E0.21877
G1 X118.603 Y98.947 E0.01150
G1 X113.529 Y93.873 E0.21882
G1 X113.263 Y94.140 E0.01150
G1 X118.353 Y99.230 E0.21952
G1 X118.103 Y99.513 E0.01152
G1 X112.996 Y94.406 E0.22023
G1 X112.729 Y94.673 E0.01150
G1 X117.880 Y99.823 E0.22210
G1 X117.656 Y100.133 E0.01165
G1 X112.463 Y94.940 E0.22397
G1 X112.196 Y95.206 E0.01150
G1 X117.454 Y100.464 E0.22675
G1 X117.258 Y100.801 E0.01189
G1 X111.930 Y95.473 E0.22978
G1 X111.663 Y95.739 E0.01150
G1 X117.079 Y101.155 E0.23356
G1 X116.910 Y101.520 E0.01226
G1 X111.396 Y96.006 E0.23780
G1 X111.130 Y96.273 E0.01150
G1 X116.758 Y101.901 E0.24273
G1 X116.622 Y102.298 E0.01279
G1 X111.062 Y96.739 E0.23974
G1 X111.062 Y97.272 E0.01626
G1 X116.496 Y102.706 E0.23433
G1 X116.394 Y103.137 E0.01352
G1 X111.062 Y97.805 E0.22995
G1 X111.062 Y98.339 E0.01626
G1 X116.308 Y103.584 E0.22623
G1 X116.244 Y104.054 E0.01445
G1 X111.062 Y98.872 E0.22347
G1 X111.062 Y99.405 E0.01626
G1 X116.207 Y104.550 E0.22189
G1 X116.187 Y105.063 E0.01566
G1 X111.062 Y99.938 E0.22102
G1 X111.062 Y100.472 E0.01626
G1 X116.218 Y105.627 E0.22234
G1 X116.235 Y105.924 E0.00905
G1 X116.283 Y106.225 E0.00931
G1 X111.062 Y101.005 E0.22513
G1 X111.062 Y101.538 E0.01626
G1 X116.387 Y106.863 E0.22963
G1 X116.578 Y107.587 E0.02282
G1 X111.062 Y102.071 E0.23785
G1 X111.062 Y102.605 E0.01626
G1 X117.222 Y108.764 E0.26562
;WIPE_START
G1 F8640
M204 S1000
G1 X114.894 Y106.437 E-0.76
;WIPE_END
G1 E-0.04 F2100
G1 Z0.6 F720
; acceleration to travel
M204 S1500
G1 X129.472 Y101.369 F10800
; decel to extrusion
M204 S800
G1 X132.305 Y100.384
; end travel
G1 Z0.2 F720
G1 E0.8 F2100
G1 F1200
G1 X138.938 Y107.016 E0.28602
G1 X138.938 Y107.549 E0.01626
G1 X133.211 Y101.823 E0.24695
G1 X133.406 Y102.350 E0.01712
G1 X133.477 Y102.622 E0.00860
G1 X138.938 Y108.083 E0.23547
G1 X138.938 Y108.616 E0.01626
G1 X133.646 Y103.324 E0.22821
G1 X133.746 Y103.958 E0.01956
G1 X138.938 Y109.149 E0.22388
G1 X138.938 Y109.683 E0.01626
G1 X133.791 Y104.536 E0.22194
G1 X133.807 Y105.085 E0.01674
G1 X138.938 Y110.216 E0.22127
G1 X138.938 Y110.749 E0.01626
M73 P2 R71
G1 X133.787 Y105.598 E0.22214
G1 X133.737 Y106.082 E0.01483
M73 Q2 S72
G1 X138.938 Y111.282 E0.22427
G1 X138.938 Y111.816 E0.01626
G1 X133.673 Y106.551 E0.22702
G1 X133.576 Y106.987 E0.01362
