; generated by SuperSlicer 2.5.60.0 on 2024-05-17 at 13:10:00 UTC

; 

; external perimeters extrusion width = 0.42mm
; perimeters extrusion width = 0.42mm
; infill extrusion width = 0.42mm
; solid infill extrusion width = 0.42mm
; top infill extrusion width = 0.42mm
; first layer extrusion width = 0.42mm

; object:{"name":"Voron_Design_Cube_v8","id":"Voron_Design_Cube_v8.STL id:0 copy 0","object_center":[125.000000,105.000000,0.000000],"boundingbox_center":[125.000000,105.000000,15.000000],"boundingbox_size":[30.000000,30.000000,30.000000]}
; Total objects to print: 1
M486 T1
; plater:{"center":[125.000000,105.000000,0.000000],"boundingbox_center":[125.000000,105.000000,15.000000],"boundingbox_size":[30.000000,30.000000,30.000000]}

M73 P0 R73
M73 Q0 S73
M201 X1000 Y1000 Z200 E5000 ; sets maximum accelerations, mm/sec^2
M203 X200 Y200 Z12 E120 ; sets maximum feedrates, mm / sec
M204 P1250 R1250 T1250 ; sets acceleration (P, T) and retract acceleration (R), mm/sec^2
M205 X8.00 Y8.00 Z0.40 E4.50 ; sets the jerk limits, mm/sec
M205 S0 T0 ; sets the minimum extruding and travel feed rate, mm/sec
M107
;TYPE:Custom
M862.3 P "MK3S" ; printer model check
M862.1 P0.4 ; nozzle diameter check
M115 U3.10.1 ; tell printer latest fw version
G90 ; use absolute coordinates
M83 ; extruder relative mode
M104 S215 ; set extruder temp
M140 S60 ; set bed temp
M190 S60 ; wait for bed temp
M109 S215 ; wait for extruder temp
G28 W ; home all without mesh bed level
G80 ; mesh bed leveling
G1 Z0.2 F720
G1 Y-3 F1000 ; go outside print area
G92 E0
M73 P0 R72
G1 X60 E9 ; intro line
G1 X100 E12.5 ; intro line
G92 E0
M221 S95

; Don't change E values below. Excessive value can damage the printer.
M907 E430 ; set extruder motor current

G21 ; set units to millimeters
G90 ; use absolute coordinates
M83 ; use relative distances for extrusion
T0
M900 K0.05 ; Filament gcode LA 1.5
M900 K30 ; Filament gcode LA 1.0
;LAYER_CHANGE
;Z:0.2
;HEIGHT:0.2
;BEFORE_LAYER_CHANGE
G92 E0.0
;0.2


G1 E-0.8 F2100
G1 Z0.4 F720
;AFTER_LAYER_CHANGE
;0.2
G1 Z0.6
M204 S800
G1 X108.417 Y93.917 F10800
G1 Z0.2 F720
G1 E0.8 F2100
;TYPE:Skirt
;WIDTH:0.52
G1 F1200
G1 X107.761 Y95.5 E0.06797
G1 X107.761 Y114.5 E0.75372
G1 X108.417 Y116.083 E0.06797
G1 X113.917 Y121.583 E0.30856
G1 X115.5 Y122.239 E0.06797
G1 X134.5 Y122.239 E0.75372
G1 X136.083 Y121.583 E0.06797
G1 X141.583 Y116.083 E0.30856
G1 X142.239 Y114.5 E0.06797
G1 X142.239 Y95.5 E0.75372
G1 X141.583 Y93.917 E0.06797
G1 X136.083 Y88.417 E0.30856
G1 X134.5 Y87.761 E0.06797
G1 X115.5 Y87.761 E0.75372
G1 X113.917 Y88.417 E0.06797
G1 X108.46 Y93.875 E0.30617
;WIPE_START
G1 F8640
M204 S1000
G1 X110.787 Y91.547 E-0.76
;WIPE_END
G1 E-0.04 F2100
G1 Z0.6 F720
; printing object Voron_Design_Cube_v8.STL id:0 copy 0
M486 S0
; acceleration to travel
M204 S1500
G1 X117.598 Y97.791 F10800
; decel to extrusion
M204 S800
G1 X118.922 Y99.005
; end travel
G1 Z0.2 F720
G1 E0.8 F2100
;TYPE:Internal perimeter
;WIDTH:0.42
G1 F1200
G1 E-0.80000 F2100.0
G1 F10800.0
G1 X116.465 Y105.000
G1 E0.80000 F0.0
G1 F1200.0
G1 X116.462 Y105.075 E0.00235
G1 X116.509 Y105.894 E0.02574
G1 X116.648 Y106.773 E0.02791
G1 X116.857 Y107.567 E0.02574
G1 X117.141 Y108.336 E0.02569
G1 X117.497 Y109.076 E0.02574
G1 X117.963 Y109.835 E0.02791
G1 X118.460 Y110.488 E0.02574
G1 X119.017 Y111.091 E0.02574
G1 X119.684 Y111.681 E0.02791
G1 X120.350 Y112.161 E0.02574
G1 X121.058 Y112.573 E0.02569
G1 X121.803 Y112.917 E0.02574
G1 X122.645 Y113.207 E0.02791
G1 X123.444 Y113.395 E0.02574
G1 X124.256 Y113.505 E0.02569
G1 X125.075 Y113.538 E0.02569
G1 X125.894 Y113.491 E0.02574
G1 X126.774 Y113.352 E0.02791
G1 X127.567 Y113.143 E0.02574
G1 X128.338 Y112.859 E0.02574
G1 X129.138 Y112.468 E0.02791
G1 X129.836 Y112.036 E0.02574
G1 X130.488 Y111.540 E0.02569
G1 X131.091 Y110.983 E0.02574
G1 X131.681 Y110.316 E0.02792
G1 X132.161 Y109.650 E0.02574
G1 X132.573 Y108.942 E0.02569
G1 X132.917 Y108.197 E0.02574
G1 X133.207 Y107.355 E0.02791
G1 X133.395 Y106.556 E0.02574
G1 X133.505 Y105.744 E0.02569
G1 X133.535 Y105.000 E0.02334
G1 E-0.80000 F2100.0
G1 X119.179 Y99.281 F10800
;TYPE:External perimeter
G1 F1200
G1 F10800.0
G1 X116.843 Y105.000
G1 E0.80000 F0.0
G1 F1200.0
G1 X116.840 Y105.071 E0.00223
G1 X116.884 Y105.854 E0.02458
G1 X117.018 Y106.696 E0.02672
G1 X117.217 Y107.454 E0.02458
G1 X117.488 Y108.189 E0.02455
G1 X117.829 Y108.895 E0.02458
G1 X118.274 Y109.621 E0.02673
G1 X118.749 Y110.245 E0.02458
G1 X119.281 Y110.821 E0.02458
G1 X119.919 Y111.386 E0.02673
G1 X120.555 Y111.844 E0.02458
G1 X121.232 Y112.238 E0.02455
G1 X121.944 Y112.567 E0.02458
G1 X122.750 Y112.844 E0.02673
G1 X123.513 Y113.024 E0.02458
G1 X124.289 Y113.129 E0.02455
G1 X125.071 Y113.160 E0.02456
G1 X125.854 Y113.116 E0.02458
G1 X126.696 Y112.982 E0.02672
G1 X127.454 Y112.783 E0.02458
G1 X128.189 Y112.511 E0.02458
G1 X128.956 Y112.138 E0.02673
G1 X129.622 Y111.725 E0.02458
G1 X130.245 Y111.251 E0.02455
G1 X130.821 Y110.719 E0.02458
G1 X131.386 Y110.081 E0.02673
G1 X131.844 Y109.445 E0.02458
G1 X132.238 Y108.768 E0.02455
G1 X132.567 Y108.056 E0.02458
G1 X132.844 Y107.250 E0.02673
G1 X133.024 Y106.487 E0.02458
G1 X133.129 Y105.711 E0.02455
G1 X133.157 Y105.000 E0.02233
G1 E-0.80000 F2100.0
;WIPE_START
M204 S1000
G1 X118.79 Y99.188 F10800
;WIPE_END
;WIPE_START
G1 F8640
G1 X118.458 Y99.794 E-0.15959
G1 X117.988 Y100.446 E-0.18556
G1 X117.584 Y101.14 E-0.18526
G1 X117.248 Y101.869 E-0.18554
G1 X117.185 Y102.05 E-0.04405
;WIPE_END
G1 E-0.04 F2100
G1 Z0.6 F720
; acceleration to travel
M204 S1500
G1 X111.828 Y97.174 F10800
; decel to extrusion
M204 S800
G1 X110.787 Y96.226
; end travel
G1 Z0.2 F720
G1 E0.8 F2100
;TYPE:Internal perimeter
G1 F1200
G1 E-0.80000 F2100.0
G1 F10800.0
G1 X139.213 Y105.000
G1 E0.80000 F0.0
G1 F1200.0
G1 X139.213 Y113.774 E0.27510
G1 X133.774 Y119.213 E0.24117
G1 X116.226 Y119.213 E0.55020
G1 X110.787 Y113.774 E0.24117
G1 X110.787 Y105.000 E0.27510
G1 E-0.80000 F2100.0
G1 X110.41 Y96.07 F10800
;TYPE:External perimeter
M73 P1 R72
M73 Q1 S73
G1 F1200
G1 F10800.0
G1 X139.590 Y105.000
G1 E0.80000 F0.0
G1 F1200.0
G1 X139.590 Y113.930 E0.28000
G1 X133.930 Y119.590 E0.25097
G1 X116.070 Y119.590 E0.56000
G1 X110.410 Y113.930 E0.25097
G1 X110.410 Y105.000 E0.28000
G1 E-0.80000 F2100.0
;WIPE_START
M204 S1000
G1 X110.81 Y96.07 F10800
;WIPE_END
;WIPE_START
G1 F8640
G1 X113.112 Y93.717 E-0.76
;WIPE_END
G1 E-0.04 F2100
G1 Z0.6 F720
; acceleration to travel
M204 S1500
G1 X130.171 Y91.359 F10800
; decel to extrusion
M204 S800
G1 X133.487 Y90.9
; end travel
G1 Z0.2 F720
G1 E0.8 F2100
;TYPE:Solid infill
;WIDTH:0.40848
G1 F1200
G1 E-0.80000 F2100.0
M73 Q1 S72
G1 F10800.0
G1 X138.938 Y105.000
G1 E0.80000 F0.0
G1 F1200.0
G1 X138.938 Y105.416 E0.01269
G1 X138.522 Y105.000 E0.01794
G1 E-0.80000 F2100.0
G1 F10800.0
G1 X137.988 Y105.000
G1 E0.80000 F0.0
G1 F1200.0
G1 X138.938 Y105.950 E0.04097
G1 X138.938 Y106.483 E0.01626
G1 X137.455 Y105.000 E0.06395
G1 E-0.80000 F2100.0
M73 P1 R71
G1 F10800.0
G1 X116.189 Y105.000
G1 E0.80000 F0.0
G1 F1200.0
G1 X116.187 Y105.063 E0.00192
G1 X116.124 Y105.000 E0.00272
G1 E-0.80000 F2100.0
G1 F10800.0
G1 X115.591 Y105.000
G1 E0.80000 F0.0
G1 F1200.0
G1 X116.218 Y105.627 E0.02704
G1 X116.235 Y105.924 E0.00905
G1 X116.283 Y106.225 E0.00931
G1 X115.058 Y105.000 E0.05283
G1 E-0.80000 F2100.0
G1 F10800.0
G1 X114.524 Y105.000
G1 E0.80000 F0.0
G1 F1200.0
G1 X116.387 Y106.863 E0.08034
G1 X116.578 Y107.587 E0.02282
G1 X113.991 Y105.000 E0.11155
G1 E-0.80000 F2100.0
G1 F10800.0
G1 X113.457 Y105.000
G1 E0.80000 F0.0
G1 F1200.0
G1 X117.222 Y108.764 E0.16233
;WIPE_START
G1 F8640
M204 S1000
G1 X114.894 Y106.437 E-0.76
;WIPE_END
G1 E-0.04 F2100
G1 Z0.6 F720
; acceleration to travel
M204 S1500
G1 X129.472 Y101.369 F10800
; decel to extrusion
M204 S800
G1 X132.305 Y100.384
; end travel
G1 Z0.2 F720
G1 E0.8 F2100
G1 F1200
G1 E-0.80000 F2100.0
G1 F10800.0
G1 X136.922 Y105.000
G1 E0.80000 F0.0
G1 F1200.0
G1 X138.938 Y107.016 E0.08694
G1 X138.938 Y107.549 E0.01626
G1 X136.389 Y105.000 E0.10993
G1 E-0.80000 F2100.0
G1 F10800.0
G1 X135.855 Y105.000
G1 E0.80000 F0.0
G1 F1200.0
G1 X138.938 Y108.083 E0.13293
G1 X138.938 Y108.616 E0.01626
G1 X135.322 Y105.000 E0.15593
G1 E-0.80000 F2100.0
G1 F10800.0
G1 X134.788 Y105.000
G1 E0.80000 F0.0
G1 F1200.0
G1 X138.938 Y109.149 E0.17894
G1 X138.938 Y109.683 E0.01626
G1 X134.255 Y105.000 E0.20193
G1 E-0.80000 F2100.0
G1 F10800.0
G1 X133.805 Y105.000
G1 E0.80000 F0.0
G1 F1200.0
G1 X133.807 Y105.085 E0.00259
G1 X138.938 Y110.216 E0.22127
G1 X138.938 Y110.749 E0.01626
M73 P2 R71
G1 X133.787 Y105.598 E0.22214
G1 X133.737 Y106.082 E0.01483
M73 Q2 S72
G1 X138.938 Y111.282 E0.22427
G1 X138.938 Y111.816 E0.01626
G1 X133.673 Y106.551 E0.22702
G1 X133.576 Y106.987 E0.01362
G1 X138.938 Y112.349 E0.23122
G1 X138.938 Y112.882 E0.01626
G1 X133.475 Y107.419 E0.23560
G1 X133.339 Y107.817 E0.01281
G1 X138.938 Y113.415 E0.24145
G1 X138.938 Y113.660 E0.00746
G1 X138.793 Y113.804 E0.00623
G1 X133.202 Y108.213 E0.24111
G1 X133.041 Y108.585 E0.01236
G1 X138.527 Y114.071 E0.23657
G1 X138.260 Y114.338 E0.01150
G1 X132.873 Y108.950 E0.23233
G1 X132.686 Y109.296 E0.01200
G1 X137.993 Y114.604 E0.22891
G1 X137.727 Y114.871 E0.01150
G1 X132.489 Y109.633 E0.22588
G1 X132.279 Y109.957 E0.01176
G1 X137.460 Y115.138 E0.22343
G1 X137.194 Y115.404 E0.01150
G1 X132.056 Y110.267 E0.22156
G1 X131.825 Y110.569 E0.01160
G1 X136.927 Y115.671 E0.22002
G1 X136.660 Y115.937 E0.01150
G1 X131.575 Y110.852 E0.21932
G1 X131.324 Y111.135 E0.01152
G1 X136.394 Y116.204 E0.21861
G1 X136.127 Y116.471 E0.01150
G1 X131.051 Y111.395 E0.21890
G1 X130.774 Y111.651 E0.01151
G1 X135.860 Y116.737 E0.21935
G1 X135.594 Y117.004 E0.01150
G1 X130.481 Y111.891 E0.22048
G1 X130.178 Y112.122 E0.01160
G1 X135.327 Y117.271 E0.22204
G1 X135.060 Y117.537 E0.01150
G1 X129.865 Y112.342 E0.22405
G1 X129.536 Y112.546 E0.01181
G1 X134.794 Y117.804 E0.22675
G1 X134.527 Y118.070 E0.01150
G1 X129.201 Y112.744 E0.22971
G1 X128.842 Y112.919 E0.01216
G1 X134.261 Y118.337 E0.23367
G1 X133.994 Y118.604 E0.01150
G1 X128.484 Y113.094 E0.23763
G1 X128.098 Y113.241 E0.01260
G1 X133.727 Y118.870 E0.24279
G1 X133.660 Y118.938 E0.00290
G1 X133.261 Y118.938 E0.01216
G1 X127.708 Y113.384 E0.23949
G1 X127.291 Y113.500 E0.01321
G1 X132.728 Y118.938 E0.23449
G1 X132.195 Y118.938 E0.01626
G1 X126.869 Y113.611 E0.22970
G1 X126.412 Y113.688 E0.01413
G1 X131.661 Y118.938 E0.22640
G1 X131.128 Y118.938 E0.01626
G1 X125.951 Y113.761 E0.22326
G1 X125.449 Y113.792 E0.01534
G1 X130.595 Y118.938 E0.22191
G1 X130.062 Y118.938 E0.01626
G1 X124.931 Y113.807 E0.22124
G1 X124.376 Y113.786 E0.01694
G1 X129.528 Y118.938 E0.22218
G1 X128.995 Y118.938 E0.01626
G1 X123.775 Y113.718 E0.22511
G1 X123.394 Y113.666 E0.01174
G1 X123.127 Y113.603 E0.00835
G1 X128.462 Y118.938 E0.23005
G1 X127.929 Y118.938 E0.01626
G1 X122.407 Y113.416 E0.23813
G1 X121.570 Y113.113 E0.02713
G1 X127.395 Y118.938 E0.25120
G1 X126.862 Y118.938 E0.01626
G1 X120.479 Y112.554 E0.27529
G1 X120.200 Y112.392 E0.00984
G1 X119.512 Y111.896 E0.02586
G1 X118.824 Y111.288 E0.02799
G1 X118.248 Y110.665 E0.02586
G1 X117.735 Y109.990 E0.02586
G1 X117.451 Y109.527 E0.01657
G1 X112.924 Y105.000 E0.19522
G1 E-0.80000 F2100.0
G1 F10800.0
G1 X112.391 Y105.000
G1 E0.80000 F0.0
G1 F1200.0
G1 X126.329 Y118.938 E0.60106
G1 X125.795 Y118.938 E0.01626
G1 X111.857 Y105.000 E0.60109
G1 E-0.80000 F2100.0
G1 F10800.0
G1 X111.324 Y105.000
G1 E0.80000 F0.0
G1 F1200.0
G1 X125.262 Y118.938 E0.60108
G1 X124.729 Y118.938 E0.01626
G1 X111.062 Y105.271 E0.58938
G1 X111.062 Y105.804 E0.01626
G1 X124.196 Y118.938 E0.56638
G1 X123.662 Y118.938 E0.01626
G1 X111.062 Y106.338 E0.54338
G1 X111.062 Y106.871 E0.01626
G1 X123.129 Y118.938 E0.52039
G1 X122.596 Y118.938 E0.01626
G1 X111.062 Y107.404 E0.49739
G1 X111.062 Y107.937 E0.01626
G1 X122.063 Y118.938 E0.47439
G1 X121.529 Y118.938 E0.01626
G1 X111.062 Y108.471 E0.45139
G1 X111.062 Y109.004 E0.01626
G1 X120.996 Y118.938 E0.42840
G1 X120.463 Y118.938 E0.01626
G1 X111.062 Y109.537 E0.40540
G1 X111.062 Y110.070 E0.01626
G1 X119.930 Y118.938 E0.38240
G1 X119.396 Y118.938 E0.01626
G1 X111.062 Y110.604 E0.35940
G1 X111.062 Y111.137 E0.01626
M73 Q2 S71
G1 X118.863 Y118.938 E0.33641
G1 X118.330 Y118.938 E0.01626
G1 X111.062 Y111.670 E0.31341
G1 X111.062 Y112.204 E0.01626
G1 X117.796 Y118.938 E0.29041
G1 X117.263 Y118.938 E0.01626
G1 X111.062 Y112.737 E0.26741
G1 X111.062 Y113.270 E0.01626
G1 X116.892 Y119.100 E0.25141
M106 S84.15
;LAYER_CHANGE
;Z:0.4
;HEIGHT:0.2
;BEFORE_LAYER_CHANGE
G92 E0.0
;0.4


;WIPE_START
G1 F8640
M204 S1000
G1 X114.565 Y116.772 E-0.76
;WIPE_END
G1 E-0.04 F2100
G1 Z0.6 F720
; stop printing object Voron_Design_Cube_v8.STL id:0 copy 0
M486 S-1
;AFTER_LAYER_CHANGE
;0.4
G1 Z0.8
; acceleration to travel
M204 S1500
G1 X112.372 Y118.965 F10800
; decel to extrusion
M204 S1000
G1 X111.836 Y119.501
; end travel
G1 Z0.4 F720
G1 E0.8 F2100
;TYPE:Skirt
;WIDTH:0.52
M106 S255
G1 F1500
G1 X113.917 Y121.583 E0.11677
G1 X115.500 Y122.239 E0.06797
G1 X134.500 Y122.239 E0.75372
G1 X136.083 Y121.583 E0.06797
G1 X141.583 Y116.083 E0.30856
G1 X142.239 Y114.500 E0.06797
G1 X142.239 Y105.000 E0.37686
G1 E-0.80000 F2100.0
G1 F10800.0
G1 X107.761 Y105.000
G1 E0.80000 F0.0
G1 F1500.0
G1 X107.761 Y114.500 E0.37686
G1 X108.417 Y116.083 E0.06797
G1 X111.793 Y119.459 E0.18940
M106 S84.15
;WIPE_START
G1 F8640
G1 X109.466 Y117.132 E-0.76
;WIPE_END
G1 E-0.04 F2100
G1 Z0.8 F720
; printing object Voron_Design_Cube_v8.STL id:0 copy 0
M486 S0
; acceleration to travel
M204 S1500
G1 X125.987 Y112.893 F10800
; decel to extrusion
M204 S800
G1 X129.37 Y112.025
; end travel
G1 Z0.4 F720
G1 E0.8 F2100
;TYPE:Internal perimeter
;WIDTH:0.45
G1 F2700
G1 X129.639 Y111.862 E0.01065
G1 X130.329 Y111.341 E0.02925
G1 X130.913 Y110.800 E0.02695
G1 X131.441 Y110.207 E0.02690
G1 X131.911 Y109.566 E0.02690
G1 X132.317 Y108.881 E0.02695
G1 X132.682 Y108.096 E0.02930
G1 X132.964 Y107.277 E0.02930
G1 X133.145 Y106.502 E0.02695
G1 X133.252 Y105.715 E0.02690
G1 X133.279 Y105.000 E0.02422
G1 E-0.80000 F2100.0
G1 F10800.0
G1 X116.721 Y105.000
G1 E0.80000 F0.0
G1 F2700.0
G1 X116.718 Y105.079 E0.00268
G1 X116.763 Y105.874 E0.02695
G1 X116.899 Y106.728 E0.02925
G1 X117.103 Y107.498 E0.02695
G1 X117.378 Y108.243 E0.02690
G1 X117.724 Y108.959 E0.02691
G1 X118.138 Y109.639 E0.02695
G1 X118.659 Y110.329 E0.02925
G1 X119.200 Y110.913 E0.02695
G1 X119.793 Y111.441 E0.02690
G1 X120.434 Y111.911 E0.02690
G1 X121.119 Y112.317 E0.02695
G1 X121.904 Y112.682 E0.02930
G1 X122.723 Y112.964 E0.02930
G1 X123.498 Y113.145 E0.02695
G1 X124.285 Y113.252 E0.02690
G1 X125.079 Y113.282 E0.02690
G1 X125.874 Y113.237 E0.02695
G1 X126.728 Y113.101 E0.02925
G1 X127.498 Y112.897 E0.02695
G1 X128.243 Y112.622 E0.02690
G1 X128.959 Y112.276 E0.02691
G1 X129.319 Y112.057 E0.01427
M204 S1000
G1 X129.158 Y111.678 F10800
;TYPE:Overhang perimeter
;WIDTH:0.313813
;HEIGHT:0.313813
M106 S255
G1 F1500
G1 X129.410 Y111.525 E0.00946
G1 X130.067 Y111.029 E0.02648
G1 X130.622 Y110.515 E0.02431
G1 X131.125 Y109.951 E0.02430
G1 X131.571 Y109.341 E0.02430
G1 X131.957 Y108.691 E0.02431
G1 X132.304 Y107.944 E0.02649
G1 X132.572 Y107.165 E0.02650
G1 X132.745 Y106.428 E0.02431
G1 X132.846 Y105.680 E0.02430
G1 X132.872 Y105.000 E0.02186
G1 E-0.80000 F2100.0
M106 S84.15
M106 S255
G1 F10800.0
G1 X117.128 Y105.000
G1 E0.80000 F0.0
G1 F1500.0
G1 X117.125 Y105.076 E0.00245
G1 X117.169 Y105.831 E0.02432
G1 X117.298 Y106.644 E0.02648
G1 X117.491 Y107.375 E0.02432
G1 X117.753 Y108.083 E0.02430
G1 X118.082 Y108.764 E0.02430
G1 X118.475 Y109.410 E0.02432
G1 X118.971 Y110.067 E0.02648
G1 X119.485 Y110.622 E0.02431
G1 X120.050 Y111.125 E0.02432
M106 S84.15
M106 S255
G1 X120.659 Y111.571 E0.02428
G1 X121.309 Y111.957 E0.02431
G1 X122.056 Y112.304 E0.02649
G1 X122.835 Y112.572 E0.02650
G1 X123.572 Y112.745 E0.02431
G1 X124.320 Y112.846 E0.02430
G1 X125.076 Y112.875 E0.02430
G1 X125.830 Y112.831 E0.02431
G1 X126.644 Y112.702 E0.02648
G1 X127.375 Y112.509 E0.02432
G1 X128.083 Y112.247 E0.02430
G1 X128.764 Y111.918 E0.02430
G1 X129.107 Y111.709 E0.01292
M106 S84.15
;WIPE_START
G1 F8640
